X: 0844
M: 6/8
L: 1/8
K: G
d/e//f// |\
g2d B2d | gfe dcB | gee Te2d | egf Te2d |\
g2d B2d | gfe dcB | ~c2d ~e2d | e<g B TA2G :|
|:\

